icons/desktop/16/svg/leaf-16.svg

<svg width="16" height="16" viewBox="0 0 16 16" fill="none" xmlns="http://www.w3.org/2000/svg">
<path fill-rule="evenodd" clip-rule="evenodd" d="M12.2499 1.00098C13.7659 1.00098 14.9999 2.23398 14.9999 3.75098V7.75098C14.9999 9.79198 14.0907 11.7022 12.5047 12.9912C11.2918 13.977 9.78996 14.498 8.23912 14.498C7.76312 14.498 7.28255 14.4486 6.80455 14.3496C5.7301 14.1254 4.74106 13.6278 3.91587 12.9365C3.55071 13.4112 3.20524 13.9017 2.88267 14.4062C2.73965 14.6301 2.49773 14.752 2.25083 14.752L2.24986 14.75C2.11089 14.75 1.97151 14.7118 1.84654 14.6318C1.49785 14.4087 1.39608 13.9446 1.619 13.5957C2.00604 12.9902 2.4238 12.4039 2.86802 11.8389C2.27853 11.0656 1.85263 10.1655 1.65025 9.19531C1.22627 7.15742 1.72078 5.08008 3.00962 3.49512C4.2986 1.91015 6.2089 1.00101 8.24986 1.00098H12.2499ZM8.24986 2.5C6.6629 2.50004 5.17666 3.20746 4.17369 4.44043C3.17099 5.67332 2.78713 7.29398 3.119 8.88672C3.25206 9.5252 3.51087 10.1241 3.86509 10.6572C4.10941 10.3876 4.36003 10.124 4.61705 9.86719C5.74695 8.73729 7.00167 7.72909 8.34654 6.86914C8.69441 6.64722 9.15858 6.74698 9.38267 7.09668C9.60662 7.44661 9.50395 7.90976 9.15513 8.13281C7.90113 8.93481 6.73059 9.87473 5.67759 10.9277C5.4011 11.2042 5.13249 11.489 4.87193 11.7812C5.51188 12.3181 6.2783 12.706 7.11216 12.8799C8.70511 13.2098 10.3265 12.8282 11.5594 11.8252C12.7923 10.8222 13.4998 9.33694 13.4999 7.74902V3.75C13.4999 3.061 12.9389 2.5 12.2499 2.5H8.24986Z" fill="black"/>
</svg>

<!-- This Source Code Form is subject to the terms of the Mozilla Public
   - License, v. 2.0. If a copy of the MPL was not distributed with this
   - file, You can obtain one at http://mozilla.org/MPL/2.0/. -->
<svg xmlns="http://www.w3.org/2000/svg" width="16" height="16" fill="context-fill" fill-opacity="context-fill-opacity" viewBox="0 0 16 16">
    <path fill-rule="evenodd" d="M12.25 1.001A2.753 2.753 0 0 1 15 3.751v4a6.742 6.742 0 0 1-6.76 6.747q-.717 0-1.435-.148a6.6 6.6 0 0 1-2.89-1.413q-.548.712-1.032 1.47a.75.75 0 0 1-.632.345l-.001-.002a.75.75 0 0 1-.63-1.154q.58-.91 1.248-1.757A6.6 6.6 0 0 1 1.65 9.195c-.424-2.038.07-4.115 1.36-5.7a6.73 6.73 0 0 1 5.24-2.494zm-4 1.499a5.24 5.24 0 0 0-4.076 1.94C3.17 5.673 2.787 7.294 3.119 8.887c.133.638.392 1.237.746 1.77q.366-.405.752-.79a22.2 22.2 0 0 1 3.73-2.998.751.751 0 0 1 .808 1.264 20.7 20.7 0 0 0-4.283 3.648c.64.537 1.406.925 2.24 1.099 1.593.33 3.214-.052 4.447-1.055A5.24 5.24 0 0 0 13.5 7.75V3.75c0-.689-.56-1.25-1.25-1.25z" clip-rule="evenodd" />
</svg>
